X:1
T:Title
%%score { ( 1 3 5 ) | ( 2 4 6 ) }
L:1/8
M:4/4
K:F
V:1 treble nm="Grand Piano"
V:3 treble 
V:5 treble 
V:2 bass 
V:4 bass 
V:6 bass 
V:1
 z4 z2[Q:1/4=100] F>G | A2 A2 A>G F>A | c6 z2 | d2 f2 e2 d2 | c6 F>G | A2 A2 A>G F>A | c6 z2 | %7
 [Ff]2 .[DFG]2 [CFA]2 [B,EG]2 |[M:3/4] [A,F]6 |[M:1/4] c>c |[M:4/4] f6 z2 | c4 z4 | %12
 z2 C>C z d c>B | A6 z2 | f6 z2 | c6 z2 | [Ff]2 .[DFG]2 [CEA]2 [B,EG]2 |[M:3/4] [A,F]6 |] %18
V:2
 z4 z2 [F,A,]>[F,B,F] | [F,CF]2 [F,CF]2 [F,CF]>[F,B,F] [F,A,]>[F,CF] | F6 z2 | %3
 [F,B,F]2 [F,DF]2 [F,CF]2 [F,B,F]2 | [F,A,F]6 [F,A,]>[F,B,F] | %5
 [F,CF]2 [F,CF]2 [F,CF]>[F,B,F] [F,A,]>[F,CF] | F6 z2 | [D,B,]2 z[K:treble] B[K:bass] C,2 C,2 | %8
[M:3/4] F,6 |[M:1/4][K:treble] A>A |[M:4/4] A2[K:bass] [F,C]>[F,C] [F,C][F,C] [F,C]>[F,E] | %11
 [F,F]2 [F,F]>[F,F] F2- [FG-]G/F/ | E6[K:bass][K:treble] z2 | F6[K:bass][K:treble] z2 | %14
 A2[K:bass] [F,C]>[F,C] z A [F,D]>[F,E] | [F,F]2 [F,F]>[F,F] [F,C]2 [F,A,F]2 | %16
 [D,B,]2 z[K:treble] B[K:bass] C,2 C,2 |[M:3/4] F,6 |] %18
V:3
 x8 | x8 | z2 A,>A, A,2 c2 | x8 | x8 | x8 | z2 A,>A, A,2 c>c | x8 |[M:3/4] x6 |[M:1/4] x2 | %10
[M:4/4] z2 A>A A[Ac] [ce]>[Bd] | A2 A>A A2 B>A | G6 z2 | z2 C>C C2 c>c | z2 A>A Ac [ce]>[Bd] | %15
 A2 A>A A2 c2 | x8 |[M:3/4] x6 |] %18
V:4
 x8 | x8 | [F,A,]2 F,>F, F,2 [F,A,F]2 | x8 | x8 | x8 | [F,A,]2 F,>F, F,2 [F,A,F]>[F,A,F] | %7
 z2 B,,2[K:treble][K:bass] z4 |[M:3/4] x6 |[M:1/4][K:treble] x2 |[M:4/4] x2[K:bass] x6 | %11
 z4 [F,C]2 z2 | z2[K:bass] C,>C, z[K:treble] B A>G | z2[K:bass] F,>F, F,2[K:treble] A>A | %14
 z4[K:bass] [F,C]2 z2 | x8 | z2 B,,2[K:treble][K:bass] z4 |[M:3/4] x6 |] %18
V:5
 x8 | x8 | x8 | x8 | x8 | x8 | x8 | x8 |[M:3/4] x6 |[M:1/4] x2 |[M:4/4] x8 | x8 | z4 C2 z2 | x8 | %14
 x8 | x8 | x8 |[M:3/4] x6 |] %18
V:6
 x8 | x8 | x8 | x8 | x8 | x8 | x8 | x3[K:treble] x[K:bass] x4 |[M:3/4] x6 |[M:1/4][K:treble] x2 | %10
[M:4/4] x2[K:bass] x6 | x8 | z4[K:bass] C,2[K:treble] z2 | x2[K:bass] x4[K:treble] x2 | %14
 x2[K:bass] x6 | x8 | x3[K:treble] x[K:bass] x4 |[M:3/4] x6 |] %18

